source/Icon/config.svg

<svg width="32" height="32" viewBox="0 0 48 48" fill="none" xmlns="http://www.w3.org/2000/svg">
    <path d="M24 4L18 10H10V18L4 24L10 30V38H18L24 44L30 38H38V30L44 24L38 18V10H30L24 4Z" fill="#2F88FF" stroke="#000000" stroke-width="4" stroke-linejoin="round"/>
    <path d="M24 30C27.3137 30 30 27.3137 30 24C30 20.6863 27.3137 18 24 18C20.6863 18 18 20.6863 18 24C18 27.3137 20.6863 30 24 30Z" fill="#43CCF8" stroke="#FFF" stroke-width="4" stroke-linejoin="round"/>
</svg>

<svg width="48" height="48" viewBox="0 0 48 48" fill="none" xmlns="http://www.w3.org/2000/svg"><path stroke-linejoin="round" stroke-width="4" stroke="#333" d="m24 4-6 6h-8v8l-6 6 6 6v8h8l6 6 6-6h8v-8l6-6-6-6v-8h-8l-6-6Z"/><path stroke-linejoin="round" stroke-width="4" stroke="#333" d="M24 30a6 6 0 1 0 0-12 6 6 0 0 0 0 12Z"/></svg>
